;FLAVOR:UltiGCode
;TIME:6236
;MATERIAL:13344
;MATERIAL2:0
;NOZZLE_DIAMETER:0.4
;MINX:69.546
;MINY:86.045
;MINZ:0.27
;MAXX:154.885
;MAXY:136.955
;MAXZ:23.97
;Generated with Cura_SteamEngine 5.2.2
M82 ;absolute extrusion mode
G0 F3000 Y50 ;avoid prime blob
G92 E0
G92 E0
G10
;LAYER_COUNT:159
;LAYER:0
M107
G0 F9000 X78.712 Y88.195 Z0.27
;TYPE:SKIRT
G11
G1 F1800 X79.311 Y87.68 E0.08531
G1 X79.958 Y87.228 E0.17055
G1 X80.649 Y86.845 E0.25588
G1 X81.374 Y86.533 E0.34112
G1 X82.127 Y86.296 E0.42638
G1 X82.901 Y86.136 E0.51174
G1 X83.783 Y86.045 E0.6075
G1 X86.048 Y86.045 E0.85212
G1 X86.837 Y86.085 E0.93744
G1 X87.617 Y86.204 E1.02266
G1 X88.382 Y86.402 E1.108
G1 X89.122 Y86.676 E1.19322
G1 X89.831 Y87.024 E1.27852
G1 X90.502 Y87.442 E1.3639
G1 X91.129 Y87.931 E1.44977
G1 X92.086 Y87.63 E1.55812
G1 X92.859 Y87.47 E1.64337
G1 X93.742 Y87.379 E1.73924
G1 X123.071 Y87.38 E4.90678
G1 X123.86 Y87.42 E4.9921
G1 X124.641 Y87.54 E5.07744
G1 X125.405 Y87.737 E5.16265
G1 X125.979 Y87.95 E5.22877
G1 X126.293 Y87.68 E5.27349
G1 X126.94 Y87.228 E5.35873
G1 X127.631 Y86.845 E5.44406
G1 X128.356 Y86.533 E5.5293
G1 X129.109 Y86.296 E5.61456
G1 X129.883 Y86.136 E5.69992
G1 X130.765 Y86.045 E5.79568
G1 X133.03 Y86.045 E6.0403
G1 X133.819 Y86.085 E6.12562
G1 X134.599 Y86.204 E6.21083
G1 X135.364 Y86.402 E6.29618
G1 X136.104 Y86.676 E6.3814
G1 X136.813 Y87.024 E6.4667
G1 X137.484 Y87.442 E6.55208
G1 X137.79 Y87.679 E6.59388
G1 X138.315 Y87.453 E6.65561
G1 X139.068 Y87.216 E6.74086
G1 X139.842 Y87.056 E6.82622
G1 X140.724 Y86.965 E6.92199
G1 X147.085 Y86.965 E7.60897
G1 X147.874 Y87.005 E7.6943
G1 X148.654 Y87.124 E7.77951
G1 X149.419 Y87.322 E7.86485
G1 X150.159 Y87.596 E7.95008
G1 X150.868 Y87.944 E8.03537
G1 X151.539 Y88.362 E8.12075
G1 X152.163 Y88.845 E8.20597
G1 X152.736 Y89.388 E8.29123
G1 X153.251 Y89.987 E8.37655
G1 X153.702 Y90.635 E8.46181
G1 X154.086 Y91.326 E8.54719
G1 X154.398 Y92.051 E8.63243
G1 X154.635 Y92.804 E8.71769
G1 X154.794 Y93.578 E8.80303
G1 X154.885 Y94.46 E8.89879
G1 X154.885 Y128.235 E12.54649
G1 X154.845 Y129.024 E12.63181
G1 X154.726 Y129.804 E12.71702
G1 X154.528 Y130.569 E12.80237
G1 X154.254 Y131.309 E12.88759
G1 X153.906 Y132.018 E12.97289
G1 X153.488 Y132.689 E13.05827
G1 X153.005 Y133.313 E13.14349
G1 X152.462 Y133.886 E13.22875
G1 X151.863 Y134.401 E13.31406
G1 X151.215 Y134.852 E13.39933
G1 X150.524 Y135.236 E13.4847
G1 X149.799 Y135.548 E13.56995
G1 X149.046 Y135.785 E13.6552
G1 X148.272 Y135.944 E13.74054
G1 X147.39 Y136.035 E13.8363
G1 X141.031 Y136.035 E14.52307
G1 X140.242 Y135.995 E14.6084
G1 X139.462 Y135.876 E14.69361
G1 X138.697 Y135.678 E14.77895
G1 X137.782 Y135.339 E14.88434
G1 X137.162 Y135.772 E14.96601
G1 X136.471 Y136.155 E15.05134
G1 X135.746 Y136.467 E15.13658
G1 X134.993 Y136.704 E15.22183
G1 X134.219 Y136.864 E15.30719
G1 X133.337 Y136.955 E15.40296
G1 X131.072 Y136.955 E15.64758
G1 X130.283 Y136.915 E15.7329
G1 X129.503 Y136.796 E15.81811
G1 X128.738 Y136.598 E15.90345
G1 X127.998 Y136.324 E15.98868
G1 X127.289 Y135.976 E16.07398
G1 X126.618 Y135.558 E16.15935
G1 X125.99 Y135.068 E16.24538
G1 X125.034 Y135.369 E16.35363
G1 X124.261 Y135.529 E16.43888
G1 X123.376 Y135.62 E16.53496
G1 X106.694 Y135.611 E18.33662
G1 X94.053 Y135.618 E19.70185
G1 X93.265 Y135.578 E19.78706
G1 X92.484 Y135.459 E19.87238
G1 X91.719 Y135.262 E19.9577
G1 X91.143 Y135.049 E20.02402
G1 X90.827 Y135.32 E20.06898
G1 X90.18 Y135.772 E20.15422
G1 X89.489 Y136.155 E20.23955
G1 X88.764 Y136.467 E20.32479
G1 X88.011 Y136.704 E20.41005
G1 X87.237 Y136.864 E20.49541
G1 X86.355 Y136.955 E20.59117
G1 X84.09 Y136.955 E20.83579
G1 X83.301 Y136.915 E20.92111
G1 X82.521 Y136.796 E21.00632
G1 X81.756 Y136.598 E21.09167
G1 X81.016 Y136.324 E21.17689
G1 X80.307 Y135.976 E21.26219
G1 X79.636 Y135.558 E21.34757
G1 X79.012 Y135.075 E21.43279
G1 X78.439 Y134.532 E21.51805
G1 X77.924 Y133.933 E21.60336
G1 X77.473 Y133.285 E21.68863
G1 X77.089 Y132.594 E21.774
G1 X76.777 Y131.869 E21.85925
G1 X76.54 Y131.116 E21.9445
G1 X76.381 Y130.342 E22.02984
G1 X76.29 Y129.461 E22.12549
G1 X76.289 Y125.19 E22.58676
G1 X75.852 Y125.127 E22.63445
G1 X75.086 Y124.937 E22.71968
G1 X74.343 Y124.67 E22.80495
G1 X73.63 Y124.33 E22.89026
G1 X72.956 Y123.919 E22.97552
G1 X72.327 Y123.442 E23.06077
G1 X71.749 Y122.903 E23.14613
G1 X71.228 Y122.31 E23.23138
G1 X70.771 Y121.666 E23.31667
G1 X70.38 Y120.98 E23.40194
G1 X70.061 Y120.257 E23.48729
G1 X69.817 Y119.506 E23.57257
G1 X69.65 Y118.734 E23.65788
G1 X69.547 Y117.817 E23.75753
G1 X69.546 Y105.546 E25.0828
G1 X69.586 Y104.757 E25.16812
G1 X69.705 Y103.976 E25.25344
G1 X69.903 Y103.212 E25.33868
G1 X70.177 Y102.471 E25.42401
G1 X70.525 Y101.762 E25.50931
G1 X70.942 Y101.092 E25.59454
G1 X71.425 Y100.467 E25.67984
G1 X71.969 Y99.895 E25.7651
G1 X72.568 Y99.38 E25.85041
G1 X73.216 Y98.928 E25.93574
G1 X73.906 Y98.545 E26.02097
G1 X74.631 Y98.233 E26.10621
G1 X75.385 Y97.996 E26.19157
G1 X76.29 Y97.809 E26.29138
G1 X76.289 Y93.846 E26.71938
G1 X76.329 Y93.057 E26.8047
G1 X76.448 Y92.277 E26.88992
G1 X76.646 Y91.512 E26.97526
G1 X76.92 Y90.772 E27.06048
G1 X77.268 Y90.063 E27.14578
G1 X77.685 Y89.392 E27.2311
G1 X78.168 Y88.767 E27.31641
G1 X78.712 Y88.195 E27.40166
G0 F9000 X79.105 Y88.376
G1 F1800 X79.699 Y87.888 E27.48469
G1 X80.341 Y87.464 E27.56778
G1 X81.024 Y87.11 E27.65086
G1 X81.74 Y86.828 E27.73397
G1 X82.481 Y86.622 E27.81704
G1 X83.239 Y86.494 E27.90006
G1 X84.089 Y86.445 E27.99201
G1 X86.048 Y86.445 E28.20358
G1 X86.816 Y86.485 E28.28664
G1 X87.576 Y86.604 E28.36972
G1 X88.319 Y86.802 E28.45276
G1 X89.038 Y87.076 E28.53586
G1 X89.724 Y87.423 E28.61889
G1 X90.371 Y87.839 E28.70196
G1 X91.079 Y88.406 E28.79993
G1 X91.698 Y88.162 E28.87178
G1 X92.439 Y87.956 E28.95485
G1 X93.198 Y87.828 E29.03798
G1 X94.048 Y87.779 E29.12993
G1 X123.071 Y87.78 E32.26441
G1 X123.839 Y87.82 E32.34747
G1 X124.599 Y87.94 E32.43057
G1 X125.342 Y88.137 E32.51358
G1 X126.055 Y88.409 E32.596
G1 X126.681 Y87.888 E32.68396
G1 X127.323 Y87.464 E32.76705
G1 X128.006 Y87.11 E32.85014
G1 X128.722 Y86.828 E32.93325
G1 X129.463 Y86.622 E33.01631
G1 X130.221 Y86.494 E33.09933
G1 X131.071 Y86.445 E33.19128
G1 X133.03 Y86.445 E33.40286
G1 X133.798 Y86.485 E33.48591
G1 X134.558 Y86.604 E33.56899
G1 X135.301 Y86.802 E33.65204
G1 X136.02 Y87.076 E33.73514
G1 X136.706 Y87.423 E33.81816
G1 X137.353 Y87.839 E33.90124
G1 X137.714 Y88.129 E33.95125
G1 X138.68 Y87.748 E34.0634
G1 X139.421 Y87.542 E34.14646
G1 X140.18 Y87.414 E34.22959
G1 X141.03 Y87.365 E34.32154
G1 X147.085 Y87.365 E34.97548
G1 X147.853 Y87.405 E35.05854
G1 X148.613 Y87.524 E35.14162
G1 X149.356 Y87.722 E35.22466
G1 X150.075 Y87.996 E35.30776
G1 X150.761 Y88.343 E35.39079
G1 X151.408 Y88.759 E35.47386
G1 X152.008 Y89.24 E35.55691
G1 X152.555 Y89.781 E35.64
G1 X153.043 Y90.376 E35.72311
G1 X153.466 Y91.018 E35.80614
G1 X153.821 Y91.701 E35.88928
G1 X154.102 Y92.416 E35.97225
G1 X154.308 Y93.158 E36.05541
G1 X154.436 Y93.916 E36.13844
G1 X154.485 Y94.765 E36.23028
G1 X154.485 Y128.235 E39.84504
G1 X154.445 Y129.003 E39.9281
G1 X154.326 Y129.763 E40.01118
G1 X154.128 Y130.506 E40.09422
G1 X153.854 Y131.225 E40.17732
G1 X153.507 Y131.911 E40.26035
G1 X153.091 Y132.558 E40.34342
G1 X152.61 Y133.158 E40.42647
G1 X152.069 Y133.705 E40.50956
G1 X151.474 Y134.193 E40.59267
G1 X150.832 Y134.616 E40.6757
G1 X150.149 Y134.971 E40.75884
G1 X149.434 Y135.252 E40.84181
G1 X148.692 Y135.458 E40.92497
G1 X147.934 Y135.586 E41.008
G1 X147.085 Y135.635 E41.09984
G1 X141.031 Y135.635 E41.75367
G1 X140.263 Y135.595 E41.83673
G1 X139.503 Y135.476 E41.91981
G1 X138.76 Y135.278 E42.00285
G1 X138.041 Y135.004 E42.08595
G1 X137.739 Y134.851 E42.12252
G1 X137.421 Y135.112 E42.16695
G1 X136.779 Y135.536 E42.25004
G1 X136.096 Y135.89 E42.33312
G1 X135.38 Y136.172 E42.41623
G1 X134.639 Y136.378 E42.4993
G1 X133.881 Y136.506 E42.58232
G1 X133.031 Y136.555 E42.67427
G1 X131.072 Y136.555 E42.88584
G1 X130.304 Y136.515 E42.9689
G1 X129.544 Y136.396 E43.05198
G1 X128.801 Y136.198 E43.13502
G1 X128.082 Y135.924 E43.21812
G1 X127.396 Y135.577 E43.30115
G1 X126.749 Y135.161 E43.38422
G1 X126.04 Y134.593 E43.48234
G1 X125.422 Y134.837 E43.5541
G1 X124.681 Y135.043 E43.63716
G1 X123.922 Y135.171 E43.72029
G1 X123.068 Y135.22 E43.81267
G1 X106.694 Y135.211 E45.58106
G1 X94.053 Y135.218 E46.94629
G1 X93.285 Y135.178 E47.02935
G1 X92.525 Y135.059 E47.11243
G1 X91.782 Y134.862 E47.19545
G1 X91.072 Y134.592 E47.27748
G1 X90.439 Y135.112 E47.36596
G1 X89.797 Y135.536 E47.44905
G1 X89.114 Y135.89 E47.53213
G1 X88.398 Y136.172 E47.61524
G1 X87.657 Y136.378 E47.6983
G1 X86.899 Y136.506 E47.78133
G1 X86.049 Y136.555 E47.87328
G1 X84.09 Y136.555 E48.08485
G1 X83.322 Y136.515 E48.16791
G1 X82.562 Y136.396 E48.25099
G1 X81.819 Y136.198 E48.33403
G1 X81.1 Y135.924 E48.41713
G1 X80.414 Y135.577 E48.50016
G1 X79.767 Y135.161 E48.58323
G1 X79.167 Y134.68 E48.66629
G1 X78.62 Y134.139 E48.74937
G1 X78.132 Y133.544 E48.83248
G1 X77.709 Y132.902 E48.91552
G1 X77.354 Y132.219 E48.99865
G1 X77.073 Y131.504 E49.08162
G1 X76.867 Y130.762 E49.16479
G1 X76.739 Y130.004 E49.24781
G1 X76.69 Y129.156 E49.33955
G1 X76.689 Y124.86 E49.80351
G1 X75.694 Y124.685 E49.91262
G1 X74.955 Y124.475 E49.99559
G1 X74.241 Y124.188 E50.0787
G1 X73.56 Y123.83 E50.16179
G1 X72.921 Y123.402 E50.24486
G1 X72.329 Y122.911 E50.32792
G1 X71.792 Y122.361 E50.41094
G1 X71.314 Y121.758 E50.49404
G1 X70.902 Y121.108 E50.57716
G1 X70.559 Y120.42 E50.66018
G1 X70.29 Y119.699 E50.74329
G1 X70.097 Y118.955 E50.82631
G1 X69.982 Y118.194 E50.90943
G1 X69.947 Y117.473 E50.98739
G1 X69.946 Y105.546 E52.2755
G1 X69.986 Y104.778 E52.35856
G1 X70.105 Y104.018 E52.44164
G1 X70.303 Y103.274 E52.52479
G1 X70.577 Y102.556 E52.60779
G1 X70.924 Y101.869 E52.69091
G1 X71.34 Y101.222 E52.77398
G1 X71.821 Y100.622 E52.85703
G1 X72.362 Y100.075 E52.94012
G1 X72.956 Y99.587 E53.02315
G1 X73.599 Y99.164 E53.10627
G1 X74.281 Y98.81 E53.18926
G1 X74.997 Y98.528 E53.27237
G1 X75.738 Y98.322 E53.35543
G1 X76.69 Y98.161 E53.45971
G1 X76.689 Y93.846 E53.92573
G1 X76.729 Y93.078 E54.00878
G1 X76.848 Y92.318 E54.09186
G1 X77.046 Y91.575 E54.17491
G1 X77.32 Y90.856 E54.25801
G1 X77.666 Y90.169 E54.34108
G1 X78.083 Y89.523 E54.42412
G1 X78.564 Y88.922 E54.50726
G1 X79.105 Y88.376 E54.59027
G0 F9000 X79.497 Y88.562
G1 F1800 X80.087 Y88.102 E54.67107
G1 X80.722 Y87.708 E54.75178
G1 X81.396 Y87.384 E54.83255
G1 X82.101 Y87.133 E54.91337
G1 X82.829 Y86.959 E54.99421
G1 X83.719 Y86.845 E55.09111
G1 X86.048 Y86.845 E55.34264
G1 X86.795 Y86.885 E55.42343
G1 X87.533 Y87.004 E55.50417
G1 X88.255 Y87.202 E55.58502
G1 X88.951 Y87.475 E55.66577
G1 X89.614 Y87.822 E55.74659
G1 X90.237 Y88.237 E55.82743
G1 X91.011 Y88.883 E55.93631
G1 X91.355 Y88.718 E55.97752
G1 X92.06 Y88.467 E56.05834
G1 X92.788 Y88.293 E56.13918
G1 X93.678 Y88.179 E56.23608
G1 X123.071 Y88.18 E59.41053
G1 X123.818 Y88.22 E59.49132
G1 X124.557 Y88.339 E59.57216
G1 X125.278 Y88.537 E59.65291
G1 X126.15 Y88.88 E59.75411
G1 X126.479 Y88.562 E59.80353
G1 X127.069 Y88.102 E59.88432
G1 X127.704 Y87.708 E59.96503
G1 X128.378 Y87.384 E60.0458
G1 X129.083 Y87.133 E60.12662
G1 X129.811 Y86.959 E60.20746
G1 X130.701 Y86.845 E60.30436
G1 X133.03 Y86.845 E60.5559
G1 X133.777 Y86.885 E60.63669
G1 X134.515 Y87.004 E60.71742
G1 X135.237 Y87.202 E60.79828
G1 X135.933 Y87.475 E60.87902
G1 X136.596 Y87.822 E60.95984
G1 X137.219 Y88.237 E61.04068
G1 X137.679 Y88.621 E61.1054
G1 X138.337 Y88.304 E61.18428
G1 X139.042 Y88.053 E61.2651
G1 X139.77 Y87.879 E61.34594
G1 X140.66 Y87.765 E61.44284
G1 X147.085 Y87.765 E62.13674
G1 X147.832 Y87.805 E62.21754
G1 X148.57 Y87.924 E62.29827
G1 X149.292 Y88.122 E62.37912
G1 X149.988 Y88.395 E62.45987
G1 X150.651 Y88.742 E62.54069
G1 X151.274 Y89.157 E62.62153
G1 X151.848 Y89.636 E62.70227
G1 X152.369 Y90.173 E62.78308
G1 X152.828 Y90.763 E62.86381
G1 X153.223 Y91.399 E62.94467
G1 X153.547 Y92.073 E63.02543
G1 X153.797 Y92.778 E63.10622
G1 X153.971 Y93.506 E63.18706
G1 X154.085 Y94.396 E63.28396
G1 X154.085 Y128.235 E66.93858
G1 X154.045 Y128.982 E67.01937
G1 X153.926 Y129.72 E67.1001
G1 X153.728 Y130.442 E67.18096
G1 X153.455 Y131.138 E67.2617
G1 X153.108 Y131.801 E67.34252
G1 X152.693 Y132.424 E67.42336
G1 X152.214 Y132.998 E67.5041
G1 X151.677 Y133.519 E67.58491
G1 X151.087 Y133.978 E67.66564
G1 X150.451 Y134.373 E67.7465
G1 X149.777 Y134.697 E67.82727
G1 X149.072 Y134.947 E67.90805
G1 X148.344 Y135.121 E67.98889
G1 X147.454 Y135.235 E68.08579
G1 X141.031 Y135.235 E68.77948
G1 X140.284 Y135.195 E68.86027
G1 X139.546 Y135.076 E68.941
G1 X138.824 Y134.878 E69.02186
G1 X138.128 Y134.605 E69.1026
G1 X137.697 Y134.38 E69.15511
G1 X137.033 Y134.898 E69.24606
G1 X136.398 Y135.292 E69.32677
G1 X135.724 Y135.616 E69.40754
G1 X135.019 Y135.867 E69.48836
G1 X134.291 Y136.041 E69.5692
G1 X133.401 Y136.155 E69.6661
G1 X131.072 Y136.155 E69.91764
G1 X130.325 Y136.115 E69.99843
G1 X129.587 Y135.996 E70.07916
G1 X128.865 Y135.798 E70.16002
G1 X128.169 Y135.525 E70.24076
G1 X127.506 Y135.178 E70.32158
G1 X126.883 Y134.763 E70.40242
G1 X126.108 Y134.116 E70.51146
G1 X125.765 Y134.281 E70.55256
G1 X125.06 Y134.532 E70.63339
G1 X124.332 Y134.706 E70.71422
G1 X123.44 Y134.82 E70.81134
G1 X106.694 Y134.811 E72.61991
G1 X94.053 Y134.818 E73.98514
G1 X93.306 Y134.778 E74.06593
G1 X92.567 Y134.659 E74.14677
G1 X91.846 Y134.462 E74.22749
G1 X90.97 Y134.119 E74.3291
G1 X90.641 Y134.438 E74.37859
G1 X90.051 Y134.898 E74.45939
G1 X89.416 Y135.292 E74.5401
G1 X88.742 Y135.616 E74.62086
G1 X88.037 Y135.867 E74.70168
G1 X87.309 Y136.041 E74.78252
G1 X86.419 Y136.155 E74.87943
G1 X84.09 Y136.155 E75.13096
G1 X83.343 Y136.115 E75.21175
G1 X82.605 Y135.996 E75.29248
G1 X81.883 Y135.798 E75.37334
G1 X81.187 Y135.525 E75.45408
G1 X80.524 Y135.178 E75.5349
G1 X79.901 Y134.763 E75.61575
G1 X79.327 Y134.284 E75.69649
G1 X78.806 Y133.747 E75.77729
G1 X78.347 Y133.157 E75.85803
G1 X77.952 Y132.521 E75.93888
G1 X77.628 Y131.847 E76.01965
G1 X77.378 Y131.142 E76.10043
G1 X77.204 Y130.414 E76.18127
G1 X77.09 Y129.524 E76.27818
G1 X77.089 Y124.471 E76.8239
G1 X76.277 Y124.39 E76.91203
G1 X75.545 Y124.236 E76.99282
G1 X74.833 Y124.005 E77.07366
G1 X74.15 Y123.699 E77.15449
G1 X73.504 Y123.323 E77.23522
G1 X72.902 Y122.879 E77.316
G1 X72.35 Y122.374 E77.3968
G1 X71.855 Y121.813 E77.4776
G1 X71.424 Y121.202 E77.55836
G1 X71.059 Y120.549 E77.63915
G1 X70.767 Y119.86 E77.71997
G1 X70.55 Y119.144 E77.80077
G1 X70.41 Y118.409 E77.88158
G1 X70.347 Y117.473 E77.9829
G1 X70.346 Y105.546 E79.27101
G1 X70.386 Y104.799 E79.3518
G1 X70.505 Y104.06 E79.43264
G1 X70.703 Y103.339 E79.51339
G1 X70.976 Y102.642 E79.59424
G1 X71.322 Y101.979 E79.67501
G1 X71.737 Y101.357 E79.75576
G1 X72.216 Y100.782 E79.83659
G1 X72.754 Y100.262 E79.91739
G1 X73.344 Y99.802 E79.99819
G1 X73.98 Y99.408 E80.07899
G1 X74.654 Y99.083 E80.15981
G1 X75.359 Y98.833 E80.24059
G1 X76.086 Y98.659 E80.32133
G1 X77.09 Y98.53 E80.43065
G1 X77.089 Y93.846 E80.93652
G1 X77.129 Y93.099 E81.01731
G1 X77.248 Y92.36 E81.09815
G1 X77.446 Y91.639 E81.1789
G1 X77.719 Y90.943 E81.25965
G1 X78.065 Y90.279 E81.34051
G1 X78.48 Y89.657 E81.42127
G1 X78.959 Y89.082 E81.50209
G1 X79.497 Y88.562 E81.5829
G0 F9000 X79.888 Y88.755
G1 F1800 X80.472 Y88.324 E81.66129
G1 X81.101 Y87.96 E81.73977
G1 X81.766 Y87.667 E81.81826
G1 X82.459 Y87.45 E81.89668
G1 X83.171 Y87.309 E81.97507
G1 X84.089 Y87.245 E82.07446
G1 X86.048 Y87.245 E82.28603
G1 X86.773 Y87.285 E82.36445
G1 X87.49 Y87.404 E82.44294
G1 X88.189 Y87.602 E82.52141
G1 X88.862 Y87.875 E82.59984
G1 X89.501 Y88.22 E82.67827
G1 X90.098 Y88.634 E82.75673
G1 X90.646 Y89.11 E82.83513
G1 X90.887 Y89.37 E82.87341
G1 X91.725 Y89.001 E82.9723
G1 X92.417 Y88.784 E83.05063
G1 X93.13 Y88.643 E83.12912
G1 X94.048 Y88.579 E83.22851
G1 X123.071 Y88.58 E86.36299
G1 X123.796 Y88.62 E86.44141
G1 X124.513 Y88.739 E86.51991
G1 X125.212 Y88.937 E86.59837
G1 X125.885 Y89.21 E86.67681
G1 X126.194 Y89.377 E86.71474
G1 X126.87 Y88.755 E86.81395
G1 X127.454 Y88.324 E86.89234
G1 X128.083 Y87.96 E86.97083
G1 X128.748 Y87.667 E87.04931
G1 X129.441 Y87.45 E87.12774
G1 X130.153 Y87.309 E87.20613
